X:1
T:Title
%%score 1 2
L:1/8
Q:1/4=68
M:6/8
K:G
V:1 treble nm="Strings 1, Soprano"
V:2 bass nm="Strings 1, Bass"
V:1
 z3 z2 [B,D] | [B,D][G,B,][B,D] [DG][DA][DB] | [EA]3 [EG]2 [DF] | [CE]CC [CE][CF][CG] | %4
w: 1.~Oh,~|drink~ of~ the~ riv er~ of~|pleas ure,~ A~|deep,~ liv ing~ stream~ of~ de|
 [B,D]3- [B,D]2 [B,D] | [B,D][G,B,][K:treble][B,D] [DG][DA][GB] | [=Fd]3 [Ec]2 [EB] | %7
w: light;~ * The~|source~ of~ all~ bless ings~ for|ev er,~ It~|
 [CA][B,D][B,D] [GB][GB][Q:1/4=68][DA][Q:1/4=12] | [DG]3- [DG]2 [B,D] | [DB]3- [DB][^C_B][D=B] | %10
w: flash es~ in~ heav en's~ pure~|light.~ * *||
 [DG]3 [B,D]2 [GB] | [FA]3- [FA][=F^G][^FA] | [GB]3- [GB]2 [GB] | [Gd]3- [Gd][G^c][Gd] | %14
w: ||||
 [DB]3- [DB][DA][DG] | [DA]3- [DA]2 [CD] | [B,D]3- [B,D][G,B,][B,D] | [DB]3 [DA]2 [DG] | %18
w: ||||
 [CE]3- [CE][CF][CG] | [B,D]3- [B,D]2 [GB] | [Gd]3- [Gd][G^c][Gd] | [GB]3- [GB][DG][DA] | [DG]6 |] %23
w: |||||
V:2
 z3 z2 [G,,G,] | [G,,G,][G,,D,][G,,G,] [B,,G,][A,,G,][G,,G,] | [C,G,]3 [C,E,]2 [C,E,] | %3
 [C,G,][C,E,][C,E,] [C,G,][D,G,][E,G,] | G,3- G,2 [G,,G,] | %5
 [G,,G,][G,,D,][G,,G,] [B,,G,][A,,G,][G,,G,] | [B,,G,]3 [C,G,]2 [C,G,] | %7
 [D,F,][D,G,][D,G,] [D,D][D,D][D,C] | [G,,B,]3- [G,,B,]2 [G,,G,] | %9
 [G,,G,][G,,G,][G,,G,] [G,,G,][G,,G,][G,,G,] | [G,,B,][G,,B,][G,,B,] [G,,G,]2 [G,,D] | %11
 [D,D][D,D][D,D] [D,D][D,D][D,D] | [G,D][D,D][B,,D] [G,,D]2 [G,D] | %13
 [G,B,][G,B,][G,B,] [G,B,][G,_B,][G,=B,] | G,G,G, [G,,G,][A,,F,][B,,G,] | [D,F,]3- [D,F,]2 [D,A,] | %16
 [G,,G,][G,,G,][G,,G,] [G,,G,][G,,D,][G,,G,] | [G,,G,][G,,G,][G,,G,] [A,,F,]2 [B,,G,] | %18
 [C,G,][C,G,][C,G,] [C,G,][D,G,][E,G,] | G,G,G, G,2 G, | [G,B,][G,B,][G,B,] [G,B,][G,_B,][G,=B,] | %21
 [D,D][D,D][D,D] [D,D][D,B,][D,C] | [G,,B,]6 |] %23

